; generated by Slic3r 1.33.8-prusa3d-win64 on 2017-05-14 at 11:15:35

; external perimeters extrusion width = 0.40mm
; perimeters extrusion width = 0.50mm
; infill extrusion width = 0.67mm
; solid infill extrusion width = 0.67mm
; top infill extrusion width = 0.67mm

M80 ; turn on PSU
M140 S70
M104 S265 ; start E heating
M17; enable motors
G28 X Y; Z ; Home
M109 S265
M190 S70
G91
G1 E5 F200
G90
G21 ; set units to millimeters
G90 ; use absolute coordinates
M82 ; use absolute distances for extrusion
G92 E0
G1 Z0.200 F5400.000
G1 E-1.50000 F1800.00000
G92 E0
G1 X81.321 Y108.204 F5400.000
G1 E1.50000 F1800.00000
G1 F1200
G1 X82.434 Y107.451 E1.55104
G1 X83.389 Y106.860 E1.59373
G1 X84.452 Y106.261 E1.64010
G1 X85.528 Y105.713 E1.68600
G1 X86.557 Y105.241 E1.72902
G1 X87.859 Y104.710 E1.78246
G1 X88.924 Y104.328 E1.82546
G1 X90.082 Y103.965 E1.87160
G1 X91.250 Y103.652 E1.91754
G1 X92.353 Y103.404 E1.96053
G1 X93.737 Y103.154 E2.01397
G1 X94.859 Y103.002 E2.05700
G1 X96.029 Y102.891 E2.10166
G1 X97.279 Y102.824 E2.14926
G1 X98.450 Y102.810 E2.19375
G1 X145.950 Y102.810 E3.99907
G1 X147.196 Y102.826 E4.04642
G1 X148.439 Y102.896 E4.09372
G1 X149.551 Y103.002 E4.13619
G1 X150.661 Y103.153 E4.17878
G1 X151.949 Y103.381 E4.22847
G1 X153.145 Y103.649 E4.27504
G1 X154.332 Y103.967 E4.32178
G1 X155.579 Y104.361 E4.37146
G1 X156.639 Y104.743 E4.41428
G1 X157.671 Y105.163 E4.45664
G1 X158.787 Y105.670 E4.50322
G1 X159.953 Y106.260 E4.55290
G1 X161.025 Y106.864 E4.59963
G1 X162.066 Y107.510 E4.64622
G1 X163.145 Y108.247 E4.69588
G1 X164.045 Y108.916 E4.73849
G1 X164.916 Y109.620 E4.78107
G1 X165.842 Y110.431 E4.82786
G1 X166.787 Y111.333 E4.87751
G1 X167.658 Y112.242 E4.92533
G1 X168.442 Y113.132 E4.97041
G1 X169.209 Y114.080 E5.01677
G1 X169.936 Y115.059 E5.06311
G1 X170.619 Y116.063 E5.10927
G1 X171.264 Y117.104 E5.15580
G1 X171.858 Y118.157 E5.20175
G1 X172.411 Y119.243 E5.24807
G1 X172.884 Y120.271 E5.29109
G1 X173.420 Y121.586 E5.34505
G1 X173.803 Y122.654 E5.38819
G1 X174.187 Y123.891 E5.43742
G1 X174.479 Y124.985 E5.48044
G1 X174.745 Y126.175 E5.52677
G1 X174.960 Y127.370 E5.57292
G1 X175.127 Y128.595 E5.61990
G1 X175.246 Y129.893 E5.66947
G1 X175.304 Y131.010 E5.71196
G1 X175.317 Y132.160 E5.75566
G1 X175.305 Y180.779 E7.60351
G1 X175.240 Y182.057 E7.65213
G1 X175.114 Y183.359 E7.70184
G1 X174.942 Y184.579 E7.74868
G1 X174.743 Y185.679 E7.79118
G1 X174.500 Y186.773 E7.83378
G1 X174.165 Y188.036 E7.88344
G1 X173.797 Y189.211 E7.93022
G1 X173.381 Y190.364 E7.97680
G1 X172.883 Y191.577 E8.02662
G1 X172.418 Y192.591 E8.06904
G1 X171.919 Y193.572 E8.11087
G1 X171.310 Y194.664 E8.15838
G1 X170.626 Y195.772 E8.20789
G1 X169.929 Y196.798 E8.25503
G1 X169.149 Y197.842 E8.30453
G1 X168.440 Y198.717 E8.34734
G1 X167.700 Y199.558 E8.38993
G1 X166.797 Y200.503 E8.43959
G1 X165.885 Y201.377 E8.48761
G1 X164.995 Y202.161 E8.53268
G1 X164.047 Y202.929 E8.57905
G1 X163.068 Y203.656 E8.62539
G1 X162.064 Y204.338 E8.67153
G1 X161.023 Y204.983 E8.71807
G1 X159.970 Y205.577 E8.76403
G1 X158.884 Y206.131 E8.81035
G1 X157.856 Y206.603 E8.85337
G1 X156.523 Y207.146 E8.90805
G1 X155.473 Y207.522 E8.95043
G1 X154.236 Y207.907 E8.99969
G1 X153.142 Y208.199 E9.04272
G1 X151.952 Y208.464 E9.08904
G1 X150.757 Y208.679 E9.13520
G1 X149.532 Y208.846 E9.18218
G1 X148.237 Y208.965 E9.23163
G1 X147.117 Y209.023 E9.27424
G1 X145.967 Y209.036 E9.31793
G1 X97.348 Y209.024 E11.16579
G1 X96.070 Y208.959 E11.21441
G1 X94.769 Y208.833 E11.26408
G1 X93.551 Y208.662 E11.31082
G1 X92.448 Y208.463 E11.35344
G1 X91.359 Y208.220 E11.39584
G1 X90.091 Y207.884 E11.44570
G1 X88.916 Y207.516 E11.49247
G1 X87.759 Y207.099 E11.53925
G1 X86.550 Y206.602 E11.58890
G1 X85.531 Y206.135 E11.63152
G1 X84.537 Y205.629 E11.67391
G1 X83.463 Y205.029 E11.72065
G1 X82.355 Y204.346 E11.77014
G1 X81.329 Y203.648 E11.81731
G1 X80.285 Y202.869 E11.86678
G1 X79.415 Y202.163 E11.90937
G1 X78.573 Y201.423 E11.95200
G1 X77.624 Y200.517 E12.00185
G1 X76.753 Y199.609 E12.04968
G1 X75.966 Y198.714 E12.09497
G1 X75.198 Y197.766 E12.14133
G1 X74.471 Y196.788 E12.18766
G1 X73.789 Y195.783 E12.23381
G1 X73.143 Y194.742 E12.28036
G1 X72.550 Y193.689 E12.32631
G1 X71.996 Y192.603 E12.37264
G1 X71.524 Y191.575 E12.41564
G1 X70.988 Y190.260 E12.46960
G1 X70.605 Y189.193 E12.51271
G1 X70.220 Y187.955 E12.56197
G1 X69.928 Y186.861 E12.60500
G1 X69.663 Y185.672 E12.65132
G1 X69.448 Y184.476 E12.69747
G1 X69.280 Y183.246 E12.74467
G1 X69.161 Y181.955 E12.79395
G1 X69.104 Y180.836 E12.83651
G1 X69.091 Y179.688 E12.88017
G1 X69.091 Y132.177 E14.68590
G1 X69.107 Y130.920 E14.73366
G1 X69.168 Y129.793 E14.77655
G1 X69.272 Y128.674 E14.81928
G1 X69.448 Y127.368 E14.86936
G1 X69.683 Y126.076 E14.91925
G1 X69.930 Y124.977 E14.96208
G1 X70.219 Y123.895 E15.00465
G1 X70.611 Y122.636 E15.05475
G1 X71.058 Y121.402 E15.10465
G1 X71.484 Y120.360 E15.14743
G1 X71.950 Y119.340 E15.19006
G1 X72.546 Y118.164 E15.24014
G1 X73.192 Y117.023 E15.29000
G1 X73.787 Y116.065 E15.33284
G1 X74.416 Y115.138 E15.37543
G1 X75.200 Y114.078 E15.42553
G1 X76.028 Y113.060 E15.47539
G1 X76.770 Y112.219 E15.51802
G1 X77.548 Y111.406 E15.56080
G1 X78.498 Y110.491 E15.61091
G1 X79.484 Y109.626 E15.66077
G1 X80.360 Y108.918 E15.70360
G1 X81.273 Y108.239 E15.74683
G1 X81.604 Y108.564 F5400.000
G1 F1200
G1 X82.592 Y107.892 E15.79225
G1 X83.536 Y107.305 E15.83449
G1 X84.667 Y106.665 E15.88390
G1 X85.727 Y106.125 E15.92910
G1 X86.747 Y105.657 E15.97174
G1 X88.018 Y105.138 E16.02392
G1 X89.069 Y104.761 E16.06635
G1 X90.209 Y104.404 E16.11178
G1 X91.364 Y104.094 E16.15720
G1 X92.453 Y103.850 E16.19963
G1 X93.804 Y103.606 E16.25180
G1 X94.911 Y103.456 E16.29426
G1 X96.074 Y103.345 E16.33868
G1 X97.299 Y103.280 E16.38529
G1 X98.453 Y103.267 E16.42914
G1 X145.950 Y103.267 E18.23435
G1 X147.172 Y103.283 E18.28080
G1 X148.396 Y103.351 E18.32736
G1 X149.498 Y103.456 E18.36946
G1 X150.599 Y103.606 E18.41169
G1 X151.858 Y103.829 E18.46029
G1 X153.040 Y104.094 E18.50632
G1 X154.204 Y104.405 E18.55212
G1 X155.428 Y104.792 E18.60091
G1 X156.474 Y105.170 E18.64317
G1 X157.498 Y105.587 E18.68520
G1 X158.597 Y106.085 E18.73104
G1 X159.737 Y106.663 E18.77963
G1 X160.791 Y107.257 E18.82562
G1 X161.817 Y107.893 E18.87146
G1 X162.876 Y108.616 E18.92024
G1 X163.768 Y109.280 E18.96250
G1 X164.629 Y109.975 E19.00453
G1 X165.536 Y110.770 E19.05037
G1 X166.464 Y111.656 E19.09914
G1 X167.316 Y112.546 E19.14596
G1 X168.092 Y113.426 E19.19057
G1 X168.848 Y114.360 E19.23621
G1 X169.563 Y115.323 E19.28182
G1 X170.235 Y116.312 E19.32726
G1 X170.870 Y117.336 E19.37305
G1 X171.457 Y118.377 E19.41850
G1 X172.002 Y119.446 E19.46409
G1 X172.468 Y120.461 E19.50654
G1 X172.952 Y121.640 E19.55497
G1 X173.326 Y122.675 E19.59681
G1 X173.747 Y124.014 E19.65014
G1 X174.035 Y125.093 E19.69259
G1 X174.297 Y126.264 E19.73819
G1 X174.508 Y127.441 E19.78362
G1 X174.673 Y128.651 E19.83005
G1 X174.790 Y129.914 E19.87826
G1 X174.847 Y131.024 E19.92048
G1 X174.859 Y132.163 E19.96377
G1 X174.848 Y180.772 E21.81125
G1 X174.783 Y182.028 E21.85903
G1 X174.660 Y183.301 E21.90765
G1 X174.492 Y184.498 E21.95359
G1 X174.295 Y185.588 E21.99570
G1 X174.055 Y186.668 E22.03775
G1 X173.726 Y187.909 E22.08653
G1 X173.364 Y189.064 E22.13255
G1 X172.955 Y190.199 E22.17840
G1 X172.468 Y191.385 E22.22713
G1 X171.963 Y192.479 E22.27293
G1 X171.459 Y193.466 E22.31504
G1 X170.914 Y194.434 E22.35725
G1 X170.243 Y195.523 E22.40588
G1 X169.557 Y196.533 E22.45226
G1 X168.791 Y197.558 E22.50088
G1 X168.091 Y198.421 E22.54313
G1 X167.360 Y199.251 E22.58517
G1 X166.471 Y200.184 E22.63414
G1 X165.581 Y201.036 E22.68095
G1 X164.701 Y201.811 E22.72556
G1 X163.767 Y202.567 E22.77120
G1 X162.804 Y203.283 E22.81681
G1 X161.815 Y203.954 E22.86224
G1 X160.791 Y204.590 E22.90804
G1 X159.749 Y205.177 E22.95349
G1 X158.681 Y205.722 E22.99908
G1 X157.666 Y206.187 E23.04153
G1 X156.487 Y206.672 E23.08994
G1 X155.432 Y207.053 E23.13257
G1 X154.113 Y207.466 E23.18513
G1 X153.034 Y207.754 E23.22759
G1 X151.863 Y208.016 E23.27318
G1 X150.686 Y208.228 E23.31862
G1 X149.476 Y208.393 E23.36504
G1 X148.214 Y208.509 E23.41322
G1 X147.103 Y208.566 E23.45547
G1 X145.964 Y208.579 E23.49877
G1 X97.355 Y208.567 E25.34624
G1 X96.104 Y208.503 E25.39383
G1 X94.827 Y208.380 E25.44261
G1 X93.629 Y208.212 E25.48858
G1 X92.539 Y208.015 E25.53067
G1 X91.459 Y207.774 E25.57274
G1 X90.218 Y207.445 E25.62151
G1 X89.063 Y207.083 E25.66753
G1 X87.928 Y206.675 E25.71335
G1 X86.741 Y206.187 E25.76212
G1 X85.647 Y205.682 E25.80792
G1 X84.661 Y205.178 E25.85001
G1 X83.693 Y204.634 E25.89224
G1 X82.604 Y203.962 E25.94085
G1 X81.594 Y203.276 E25.98725
G1 X80.570 Y202.511 E26.03585
G1 X79.707 Y201.811 E26.07809
G1 X78.876 Y201.080 E26.12016
G1 X77.944 Y200.190 E26.16912
G1 X77.091 Y199.301 E26.21595
G1 X76.315 Y198.420 E26.26057
G1 X75.560 Y197.487 E26.30619
G1 X74.844 Y196.523 E26.35180
G1 X74.172 Y195.535 E26.39724
G1 X73.537 Y194.510 E26.44305
G1 X72.950 Y193.469 E26.48849
G1 X72.405 Y192.400 E26.53408
G1 X71.939 Y191.385 E26.57652
G1 X71.455 Y190.207 E26.62494
G1 X71.074 Y189.152 E26.66756
G1 X70.660 Y187.832 E26.72012
G1 X70.372 Y186.753 E26.76258
G1 X70.110 Y185.577 E26.80837
G1 X69.899 Y184.400 E26.85381
G1 X69.734 Y183.195 E26.90003
G1 X69.618 Y181.931 E26.94830
G1 X69.561 Y180.823 E26.99047
G1 X69.548 Y179.685 E27.03372
G1 X69.548 Y132.177 E28.83933
G1 X69.564 Y130.944 E28.88617
G1 X69.623 Y129.827 E28.92869
G1 X69.727 Y128.717 E28.97107
G1 X69.899 Y127.440 E29.02004
G1 X70.130 Y126.172 E29.06904
G1 X70.374 Y125.087 E29.11130
G1 X70.661 Y124.013 E29.15353
G1 X71.044 Y122.782 E29.20252
G1 X71.481 Y121.575 E29.25132
G1 X71.904 Y120.542 E29.29375
G1 X72.366 Y119.530 E29.33602
G1 X72.949 Y118.381 E29.38500
G1 X73.583 Y117.260 E29.43397
G1 X74.170 Y116.315 E29.47624
G1 X74.794 Y115.395 E29.51848
G1 X75.561 Y114.359 E29.56747
G1 X76.374 Y113.359 E29.61645
G1 X77.110 Y112.525 E29.65872
G1 X77.878 Y111.723 E29.70095
G1 X78.807 Y110.828 E29.74995
G1 X79.775 Y109.978 E29.79892
G1 X80.640 Y109.279 E29.84118
G1 X81.555 Y108.599 E29.88452
G1 E28.38452 F1800.00000
G92 E0
G1 X93.034 Y156.794 F5400.000
G1 E1.50000 F1800.00000
G1 F675
G1 X94.007 Y156.598 E1.52947
G1 X94.987 Y156.442 E1.55895
G1 X95.973 Y156.328 E1.58842
G1 X96.963 Y156.256 E1.61790
G1 X97.936 Y156.225 E1.64678
G1 X98.948 Y156.235 E1.67684
G1 X99.939 Y156.287 E1.70632
G1 X100.928 Y156.380 E1.73579
G1 X101.911 Y156.515 E1.76526
G1 X102.888 Y156.691 E1.79474
G1 X103.857 Y156.907 E1.82421
G1 X104.797 Y157.159 E1.85310
G1 X105.763 Y157.461 E1.88315
G1 X106.697 Y157.797 E1.91263
G1 X107.616 Y158.172 E1.94211
G1 X108.519 Y158.586 E1.97158
G1 X109.403 Y159.036 E2.00105
G1 X110.268 Y159.524 E2.03053
G1 X111.112 Y160.047 E2.06000
G1 X111.916 Y160.593 E2.08889
G1 X112.730 Y161.196 E2.11895
G1 X113.501 Y161.821 E2.14842
G1 X114.246 Y162.478 E2.17790
G1 X114.962 Y163.165 E2.20737
G1 X115.649 Y163.881 E2.23684
G1 X116.306 Y164.626 E2.26632
G1 X116.930 Y165.397 E2.29579
G1 X117.522 Y166.194 E2.32526
G1 X118.080 Y167.015 E2.35474
G1 X118.605 Y167.862 E2.38431
G1 X119.091 Y168.724 E2.41369
G1 X119.541 Y169.608 E2.44316
G1 X119.955 Y170.511 E2.47263
G1 X120.330 Y171.430 E2.50211
G1 X120.666 Y172.364 E2.53158
G1 X120.963 Y173.311 E2.56106
G1 X121.224 Y174.289 E2.59111
G1 X121.436 Y175.239 E2.62000
G1 X121.612 Y176.216 E2.64947
G1 X121.747 Y177.199 E2.67895
G1 X121.840 Y178.187 E2.70842
G1 X121.892 Y179.179 E2.73789
G1 X121.902 Y180.171 E2.76737
G1 X121.870 Y181.183 E2.79743
G1 X121.799 Y182.153 E2.82631
G1 X121.684 Y183.140 E2.85579
G1 X121.529 Y184.120 E2.88526
G1 X121.333 Y185.093 E2.91474
G1 X121.096 Y186.057 E2.94421
G1 X120.819 Y187.010 E2.97369
G1 X120.503 Y187.951 E3.00316
G1 X120.147 Y188.878 E3.03263
G1 X119.753 Y189.789 E3.06211
G1 X119.321 Y190.683 E3.09158
G1 X118.851 Y191.558 E3.12106
G1 X118.335 Y192.429 E3.15111
G1 X117.806 Y193.245 E3.18000
G1 X117.231 Y194.054 E3.20947
G1 X116.622 Y194.838 E3.23895
G1 X115.981 Y195.596 E3.26842
G1 X115.309 Y196.327 E3.29790
G1 X114.608 Y197.029 E3.32737
G1 X113.877 Y197.701 E3.35684
G1 X113.119 Y198.342 E3.38632
G1 X112.334 Y198.950 E3.41579
G1 X111.525 Y199.525 E3.44526
G1 X110.693 Y200.066 E3.47474
G1 X109.838 Y200.571 E3.50421
G1 X108.965 Y201.039 E3.53363
G1 X108.070 Y201.472 E3.56316
G1 X107.162 Y201.865 E3.59253
G1 X106.232 Y202.222 E3.62211
G1 X105.291 Y202.539 E3.65158
G1 X104.338 Y202.816 E3.68106
G1 X103.374 Y203.052 E3.71053
G1 X102.401 Y203.249 E3.74000
G1 X101.420 Y203.404 E3.76948
G1 X100.434 Y203.518 E3.79895
G1 X99.462 Y203.589 E3.82789
G1 X98.452 Y203.622 E3.85789
G1 X97.459 Y203.612 E3.88737
G1 X96.468 Y203.560 E3.91684
G1 X95.480 Y203.466 E3.94632
G1 X94.496 Y203.331 E3.97579
G1 X93.519 Y203.156 E4.00526
G1 X92.550 Y202.939 E4.03474
G1 X91.592 Y202.682 E4.06421
G1 X90.663 Y202.391 E4.09310
G1 X89.710 Y202.049 E4.12316
G1 X88.791 Y201.674 E4.15263
G1 X87.889 Y201.261 E4.18211
G1 X87.004 Y200.810 E4.21158
G1 X86.139 Y200.323 E4.24105
G1 X85.296 Y199.800 E4.27053
G1 X84.475 Y199.242 E4.30000
G1 X83.678 Y198.650 E4.32948
G1 X82.906 Y198.025 E4.35895
G1 X82.162 Y197.369 E4.38842
G1 X81.445 Y196.682 E4.41790
G1 X80.758 Y195.965 E4.44737
G1 X80.102 Y195.221 E4.47684
G1 X79.477 Y194.449 E4.50632
G1 X78.885 Y193.652 E4.53579
G1 X78.327 Y192.831 E4.56527
G1 X77.804 Y191.987 E4.59474
G1 X77.317 Y191.123 E4.62422
G1 X76.858 Y190.220 E4.65427
G1 X76.453 Y189.336 E4.68316
G1 X76.078 Y188.416 E4.71263
G1 X75.742 Y187.482 E4.74211
G1 X75.445 Y186.535 E4.77158
G1 X75.188 Y185.576 E4.80106
G1 X74.971 Y184.608 E4.83053
G1 X74.795 Y183.631 E4.86000
G1 X74.661 Y182.647 E4.88948
G1 X74.567 Y181.659 E4.91895
G1 X74.515 Y180.668 E4.94842
G1 X74.505 Y179.675 E4.97790
G1 X74.537 Y178.665 E5.00790
G1 X74.609 Y177.693 E5.03684
G1 X74.723 Y176.707 E5.06632
G1 X74.878 Y175.726 E5.09579
G1 X75.074 Y174.753 E5.12527
G1 X75.311 Y173.789 E5.15474
G1 X75.588 Y172.836 E5.18421
G1 X75.905 Y171.895 E5.21368
G1 X76.261 Y170.968 E5.24316
G1 X76.655 Y170.057 E5.27263
G1 X77.087 Y169.164 E5.30211
G1 X77.556 Y168.289 E5.33158
G1 X78.072 Y167.418 E5.36164
G1 X78.602 Y166.602 E5.39053
G1 X79.177 Y165.793 E5.42000
G1 X79.785 Y165.008 E5.44948
G1 X80.426 Y164.250 E5.47895
G1 X81.098 Y163.519 E5.50842
G1 X81.800 Y162.817 E5.53790
G1 X82.531 Y162.145 E5.56737
G1 X83.289 Y161.505 E5.59684
G1 X84.073 Y160.896 E5.62632
G1 X84.882 Y160.321 E5.65579
G1 X85.715 Y159.781 E5.68526
G1 X86.569 Y159.275 E5.71474
G1 X87.444 Y158.806 E5.74421
G1 X88.338 Y158.374 E5.77369
G1 X89.249 Y157.980 E5.80316
G1 X90.176 Y157.624 E5.83264
G1 X91.116 Y157.308 E5.86211
G1 X92.070 Y157.031 E5.89158
G1 X92.975 Y156.808 E5.91927
G1 E4.41927 F1800.00000
G92 E0
G1 X117.785 Y165.206 F5400.000
G1 X117.785 Y146.640 F5400.000
G1 X116.664 Y147.255 F5400.000
G1 E1.50000 F1800.00000
G1 F675
G1 X118.904 Y147.650 E1.56753
G1 X118.904 Y148.023 E1.57862
G1 X128.104 Y148.023 E1.85178
G1 X128.104 Y147.716 E1.86090
G1 X129.233 Y148.894 E1.90935
G1 X129.959 Y149.589 E1.93920
G1 X130.713 Y150.254 E1.96905
G1 X131.494 Y150.887 E1.99889
G1 X132.301 Y151.486 E2.02874
G1 X133.132 Y152.051 E2.05859
G1 X133.987 Y152.581 E2.08844
G1 X134.863 Y153.074 E2.11828
G1 X135.758 Y153.531 E2.14813
G1 X136.672 Y153.949 E2.17797
G1 X137.603 Y154.329 E2.20782
G1 X138.549 Y154.670 E2.23767
G1 X139.508 Y154.970 E2.26751
G1 X140.479 Y155.230 E2.29736
G1 X141.459 Y155.449 E2.32717
G1 X143.015 Y155.710 E2.37403
G1 X143.015 Y156.136 E2.38667
G1 X141.459 Y156.397 E2.43353
G1 X140.479 Y156.616 E2.46334
G1 X139.508 Y156.876 E2.49318
G1 X138.549 Y157.177 E2.52303
G1 X137.603 Y157.517 E2.55288
G1 X136.672 Y157.897 E2.58272
G1 X135.758 Y158.316 E2.61257
G1 X134.863 Y158.772 E2.64242
G1 X133.987 Y159.265 E2.67226
G1 X133.132 Y159.795 E2.70211
G1 X132.301 Y160.360 E2.73196
G1 X131.494 Y160.959 E2.76180
G1 X130.713 Y161.592 E2.79165
G1 X129.959 Y162.257 E2.82150
G1 X129.233 Y162.953 E2.85135
G1 X128.104 Y164.128 E2.89975
G1 X128.104 Y163.823 E2.90881
G1 X118.904 Y163.823 E3.18197
G1 X118.904 Y164.197 E3.19306
G1 X116.669 Y164.591 E3.26043
G1 X115.870 Y163.678 E3.29646
G1 X115.174 Y162.953 E3.32629
G1 X114.449 Y162.257 E3.35614
G1 X113.695 Y161.592 E3.38599
